images_elementary_svg/cmd/sc_datadatapilotrun.svg

<svg viewBox="0 0 16 16" xmlns="http://www.w3.org/2000/svg" xmlns:xlink="http://www.w3.org/1999/xlink"><linearGradient id="a" gradientTransform="matrix(.59436 0 0 .5999 -19.265 -.033)" gradientUnits="userSpaceOnUse" x1="25.132" x2="25.132" y1="15.5" y2="48.396"><stop offset="0" stop-color="#fafafa"/><stop offset="1" stop-color="#e2e1de"/></linearGradient><linearGradient id="b" gradientTransform="matrix(.98704 0 0 .88413 .093 -1.35)" gradientUnits="userSpaceOnUse" x1="7" x2="7" y1="2" y2="9"><stop offset="0" stop-color="#fff"/><stop offset=".5" stop-color="#fff" stop-opacity=".235"/><stop offset=".951" stop-color="#fff" stop-opacity=".157"/><stop offset="1" stop-color="#fff" stop-opacity=".392"/></linearGradient><linearGradient id="c" gradientTransform="matrix(.94103 0 0 1.027 .46 -2.56)" gradientUnits="userSpaceOnUse" x1="7" x2="7" y1="-4" y2="17"><stop offset="0" stop-color="#cdf87e"/><stop offset=".262" stop-color="#a2e34f"/><stop offset=".661" stop-color="#68b723"/><stop offset="1" stop-color="#1d7e0d"/></linearGradient><linearGradient id="d" gradientTransform="matrix(0 -.5372019 .57681717 0 -15.997187 19.865617)" gradientUnits="userSpaceOnUse" x1="10.088258" x2="13.73227" y1="2.601002" y2="13.177273"><stop offset="0" stop-color="#fff"/><stop offset=".45000002" stop-color="#fff" stop-opacity=".235294"/><stop offset=".65000004" stop-color="#fff" stop-opacity=".156863"/><stop offset="1" stop-color="#fff" stop-opacity=".392157"/></linearGradient><g stroke-miterlimit="7" stroke-width=".963925" transform="matrix(1 0 0 -1 1.012829 17.051081)"><path d="m12.678889 11.518039c3.550426-2.4050401 1.417792-7.0180385-2.199926-7.0180385v-1.9108774l-5.0000006 3.5714274 5.0000006 3.33945v-2c2.552377-.09933 3.668165 2.3398839 1.843474 4.0180385z" display="block" fill="#d8a7ff" stroke="#8e56dc" stroke-linejoin="round"/><path d="m13.360898 10.273948c1.252469-1.4706154.124647-5.3104081-3.8819354-4.7851702v-.9887773l-2.3301492 1.66055 2.3301492 1.5093014v-.7916852c4.3967954-.2351177 4.2560864 2.8012877 3.8819354 3.3957813z" display="block" fill="none" opacity=".53" stroke="url(#d)"/></g><g transform="translate(0 2)"><rect fill="url(#a)" height="10" rx=".424" ry=".491" width="5" x="1" y="3"/><path d="m.498-1.998c-.276 0-.5.224-.5.5l.002 14.998c0 .276.224.5.5.5h5.5v-.998h-5.002l-.002-10.002h4.004v2h-4v1h4v3h-4v1h4v3h1v-11h-.002v-2.998h-1v2.998h-4.002v-3h14.004v3h.998v-3.498c0-.276-.224-.5-.5-.5h-15zm9.5 1v2.998h1v-2.998z" fill="#030303" opacity=".32"/></g><path d="m.5 0a.5.5 0 0 0 -.5.5v3.5h.998v-3.002h14.004v3.002h.998v-3.5a.5.5 0 0 0 -.5-.5zm4.5 1v2h-4v1h14v-1h-4v-2h-1v2h-4v-2z" fill="#126400" opacity=".4"/><path d="m.5.52h15.02v3.082h-15.02z" fill="url(#c)"/><path d="m.5.52v3.082l.51-.008-.01-2.594h14v2.602h.518v-3.08z" fill="url(#b)"/><path d="m5 .494h1v3.074h-1zm5 0h1v3.103h-1z" fill="#126400" opacity=".4"/></svg>

<?xml version="1.0" encoding="UTF-8" standalone="no"?>
<svg
   xmlns:dc="http://purl.org/dc/elements/1.1/"
   xmlns:cc="http://creativecommons.org/ns#"
   xmlns:rdf="http://www.w3.org/1999/02/22-rdf-syntax-ns#"
   xmlns:svg="http://www.w3.org/2000/svg"
   xmlns="http://www.w3.org/2000/svg"
   xmlns:xlink="http://www.w3.org/1999/xlink"
   xmlns:sodipodi="http://sodipodi.sourceforge.net/DTD/sodipodi-0.dtd"
   xmlns:inkscape="http://www.inkscape.org/namespaces/inkscape"
   viewBox="0 0 16 16"
   version="1.1"
   id="svg73"
   sodipodi:docname="sc_datadatapilotrun.svg"
   inkscape:version="0.92.3 (unknown)">
  <metadata
     id="metadata77">
    <rdf:RDF>
      <cc:Work
         rdf:about="">
        <dc:format>image/svg+xml</dc:format>
        <dc:type
           rdf:resource="http://purl.org/dc/dcmitype/StillImage" />
      </cc:Work>
    </rdf:RDF>
  </metadata>
  <sodipodi:namedview
     pagecolor="#ffffff"
     bordercolor="#666666"
     borderopacity="1"
     objecttolerance="10"
     gridtolerance="10"
     guidetolerance="10"
     inkscape:pageopacity="0"
     inkscape:pageshadow="2"
     inkscape:window-width="1366"
     inkscape:window-height="706"
     id="namedview75"
     showgrid="false"
     inkscape:zoom="14.75"
     inkscape:cx="-0.71186441"
     inkscape:cy="7.4576271"
     inkscape:window-x="0"
     inkscape:window-y="0"
     inkscape:window-maximized="1"
     inkscape:current-layer="svg73" />
  <defs
     id="defs53">
    <linearGradient
       gradientTransform="matrix(1.38317 0 0 1.41442 -36.243 -3.873)"
       id="b"
       gradientUnits="userSpaceOnUse"
       x1="8.295"
       x2="8.295"
       y1="-4.284"
       y2="16.85">
      <stop
         offset="0"
         stop-color="#cdf87e"
         id="stop2" />
      <stop
         offset=".262"
         stop-color="#a2e34f"
         id="stop4" />
      <stop
         offset=".661"
         stop-color="#68b723"
         id="stop6" />
      <stop
         offset="1"
         stop-color="#1d7e0d"
         id="stop8" />
    </linearGradient>
    <linearGradient
       id="f"
       gradientTransform="matrix(.59436 0 0 .5999 -19.265 -.033)"
       gradientUnits="userSpaceOnUse"
       x1="25.132"
       x2="25.132"
       y1="15.5"
       y2="48.396">
      <stop
         offset="0"
         stop-color="#fafafa"
         id="stop11" />
      <stop
         offset="1"
         stop-color="#e2e1de"
         id="stop13" />
    </linearGradient>
    <linearGradient
       id="a">
      <stop
         offset="0"
         stop-color="#fff"
         id="stop16" />
      <stop
         offset=".5"
         stop-color="#fff"
         stop-opacity=".235"
         id="stop18" />
      <stop
         offset=".951"
         stop-color="#fff"
         stop-opacity=".157"
         id="stop20" />
      <stop
         offset="1"
         stop-color="#fff"
         stop-opacity=".392"
         id="stop22" />
    </linearGradient>
    <linearGradient
       xlink:href="#a"
       id="h"
       x1="7"
       y1="2"
       x2="7"
       y2="9"
       gradientUnits="userSpaceOnUse"
       gradientTransform="matrix(.98704 0 0 .88413 .093 -1.35)" />
    <linearGradient
       xlink:href="#b"
       id="g"
       x1="7"
       y1="-4"
       x2="7"
       y2="17"
       gradientUnits="userSpaceOnUse"
       gradientTransform="matrix(.94103 0 0 1.027 .46 -2.56)" />
    <linearGradient
       id="c">
      <stop
         offset="0"
         stop-color="#e4e4e4"
         id="stop27" />
      <stop
         offset="1"
         stop-color="#fff"
         id="stop29" />
    </linearGradient>
    <linearGradient
       id="d">
      <stop
         offset="0"
         stop-color="#ffcd7d"
         id="stop32" />
      <stop
         offset=".262"
         stop-color="#fc8f36"
         id="stop34" />
      <stop
         offset="1"
         stop-color="#e23a0e"
         id="stop36" />
    </linearGradient>
    <linearGradient
       id="e">
      <stop
         offset="0"
         stop-color="#ba3d12"
         id="stop39" />
      <stop
         offset="1"
         stop-color="#db6737"
         id="stop41" />
    </linearGradient>
    <linearGradient
       id="i"
       gradientTransform="matrix(0,0.5372,0.57682,0,-29.753,-2.242)"
       gradientUnits="userSpaceOnUse"
       x1="11.517"
       x2="11.484"
       y1="13.147"
       y2="3.511">
      <stop
         offset="0"
         stop-color="#fff"
         id="stop44" />
      <stop
         offset=".45"
         stop-color="#fff"
         stop-opacity=".235"
         id="stop46" />
      <stop
         offset=".65"
         stop-color="#fff"
         stop-opacity=".157"
         id="stop48" />
      <stop
         offset="1"
         stop-color="#fff"
         stop-opacity=".392"
         id="stop50" />
    </linearGradient>
    <linearGradient
       id="a-3"
       gradientTransform="matrix(0,-0.5372019,0.57681717,0,-15.997187,19.865617)"
       gradientUnits="userSpaceOnUse"
       x1="10.088258"
       x2="13.73227"
       y1="2.601002"
       y2="13.177273">
      <stop
         offset="0"
         stop-color="#fff"
         id="stop1590" />
      <stop
         offset=".45000002"
         stop-color="#fff"
         stop-opacity=".235294"
         id="stop1592" />
      <stop
         offset=".65000004"
         stop-color="#fff"
         stop-opacity=".156863"
         id="stop1594" />
      <stop
         offset="1"
         stop-color="#fff"
         stop-opacity=".392157"
         id="stop1596" />
    </linearGradient>
  </defs>
  <g
     id="g2219"
     transform="matrix(1,0,0,-1,1.0128292,17.051081)">
    <path
       id="path1629"
       style="display:block;fill:#d8a7ff;stroke:#8e56dc;stroke-width:0.963925;stroke-linejoin:round;stroke-miterlimit:7"
       d="M 12.678889,11.518039 C 16.229315,9.1129989 14.096681,4.5000005 10.478963,4.5000005 V 2.5891231 l -5.0000006,3.5714274 5.0000006,3.33945 v -2 c 2.552377,-0.09933 3.668165,2.3398839 1.843474,4.0180385 z"
       inkscape:connector-curvature="0" />
    <path
       id="path1631"
       style="display:block;opacity:0.52999998;fill:none;stroke:url(#a-3);stroke-width:0.963925;stroke-miterlimit:7"
       d="M 13.360898,10.273948 C 14.613367,8.8033326 13.485545,4.9635399 9.4789626,5.4887778 V 4.5000005 l -2.3301492,1.66055 2.3301492,1.5093014 V 6.8781667 C 13.875758,6.643049 13.735049,9.6794544 13.360898,10.273948 Z"
       inkscape:connector-curvature="0" />
  </g>
  <g
     transform="translate(0 2)"
     id="g59">
    <rect
       height="10"
       rx=".424"
       ry=".491"
       width="5"
       x="1"
       y="3"
       fill="url(#f)"
       id="rect55" />
    <path
       d="M.498-1.998c-.276 0-.5.224-.5.5L0 13.5c0 .276.224.5.5.5H6v-.998H.998L.996 3H5v2H1v1h4v3H1v1h4v3h1V2h-.002V-.998h-1V2H.996v-3H15v3h.998v-3.498c0-.276-.224-.5-.5-.5h-15zm9.5 1V2h1V-.998h-1z"
       opacity=".32"
       fill="#030303"
       id="path57" />
  </g>
  <path
     d="M.5 0a.5.5 0 0 0-.5.5V4h.998V.998h14.004V4H16V.5a.5.5 0 0 0-.5-.5zM5 1v2H1v1h14V3h-4V1h-1v2H6V1z"
     opacity=".4"
     fill="#126400"
     id="path61" />
  <path
     d="M.5.52h15.02v3.082H.5z"
     fill="url(#g)"
     id="path63" />
  <path
     d="M.5.52v3.082l.51-.008L1 1h14v2.602h.518V.522z"
     fill="url(#h)"
     id="path65" />
  <path
     opacity=".4"
     fill="#126400"
     d="M5 .494h1v3.074H5zm5 0h1v3.103h-1z"
     id="path67" />
</svg>
